!!!COM: Mozart, Wolfgang Amadeus
!!!CDT: 1756/01/27/-1791/12/05/
!!!CNT: German
!!!OTL: Piano Sonata No. 6 in D major
!!!SCT1: K<sup>1</sup> 284
!!!SCT2: K<sup>6</sup> 205b
!!!OMV: Mvmt. 3g
!!!OMD: Variation 6
!!!ODT: 1775///
**kern	**kern	**dynam
*staff2	*staff1	*staff1/2
*>[A,A,B,B]	*>[A,A,B,B]	*>[A,A,B,B]
*>norep[A,B]	*>norep[A,B]	*>norep[A,B]
*>A	*>A	*>A
*clefF4	*clefG2	*clefG2
*k[f#c#]	*k[f#c#]	*k[f#c#]
*D:	*D:	*D:
*M2/2	*M2/2	*M2/2
*met(c|)	*met(c|)	*met(c|)
*MM120	*MM120	*MM120
=!|:	=!|:	=!|:
4AA\ 4A\	2r	.
4FF#/ 4F#/	.	.
=1	=1	=1
*	*^	*
4DD/ 4D/	4ryy	16r	.
.	.	(16d\LL	f
.	.	16f#\	.
.	.	16d\JJ)	.
4ryy	4aa/	16r	.
.	.	(16d\LL	.
.	.	16f#\	.
.	.	16d\JJ)	.
4ryy	4bb/	16r	.
.	.	(16d\LL	.
.	.	16f#\	.
.	.	16d\JJ)	.
4ryy	4ff#/	16r	.
.	.	(16d#\LL	.
.	.	16b\	.
.	.	16d#\JJ)	.
=2	=2	=2	=2
4ryy	4gg/	16r	.
.	.	16e\LL	.
.	.	16b\	.
.	.	16e\JJ	.
4EE/ 4E/	4ryy	16r	.
.	.	16g#\LL	.
.	.	16b\	.
.	.	16g#\JJ	.
4CC#/ 4C#/	4ryy	16r	.
.	.	16gn\LL	.
.	.	16ee\	.
.	.	16g\JJ	.
4AAA/ 4AA/	4ryy	16r	.
.	.	16g\LL	.
.	.	16cc#\	.
.	.	16g\JJ	.
=3	=3	=3	=3
4DD/ 4D/	4ryy	16r	.
.	.	16f#\LL	.
.	.	16dd\	.
.	.	16f#\JJ	.
4ryy	4aa/	16r	.
.	.	16f#\LL	.
.	.	16dd\	.
.	.	16f#\JJ	.
4GG/ 4G/	4ryy	16r	.
.	.	16e\LL	.
.	.	16dd\	.
.	.	16e\JJ	.
4ryy	4bb/	16r	.
.	.	16e\LL	.
.	.	16dd\	.
.	.	16e\JJ	.
=4	=4	=4	=4
4ryy	(4dd/	16r	.
.	.	16f#\LL	.
.	.	16a\	.
.	.	16f#\JJ	.
4ryy	4cc#/)	16r	.
.	.	16e\LL	.
.	.	16a\	.
.	.	16e\JJ	.
4AA\ 4A\	4ryy	2r	.
4FF#/ 4F#/	4ryy	.	.
=5	=5	=5	=5
4DD/ 4D/	4ryy	16r	.
.	.	16f#\LL	.
.	.	16a\	.
.	.	16f#\JJ	.
4ryy	4ddd/	16r	.
.	.	16f#\LL	.
.	.	16a\	.
.	.	16f#\JJ	.
4ryy	4bb/	16r	.
.	.	16f#\LL	.
.	.	16dd\	.
.	.	16f#\JJ	.
4ryy	4aa/	16r	.
.	.	16f#\LL	.
.	.	16dd\	.
.	.	16f#\JJ	.
=6	=6	=6	=6
4ryy	4gg#/	16r	.
.	.	16e\LL	.
.	.	16dd\	.
.	.	16e\JJ	.
4BBB/ 4BB/	4ryy	16r	.
.	.	16g#\LL	.
.	.	16dd\	.
.	.	16g#\JJ	.
4EE/ 4E/	4ryy	16r	.
.	.	16g#\LL	.
.	.	16b\	.
.	.	16g#\JJ	.
4DD/ 4D/	4ryy	16r	.
.	.	16g#\LL	.
.	.	16b\	.
.	.	16g#\JJ	.
=7	=7	=7	=7
4CC#/ 4C#/	4ryy	16r	.
.	.	16a\LL	.
.	.	16cc#\	.
.	.	16a\JJ	.
4ryy	4ee/	16r	.
.	.	16c#\LL	.
.	.	16a\	.
.	.	16c#\JJ	.
4EE/ 4E/	4ryy	16r	.
.	.	16B\LL	.
.	.	16g#\	.
.	.	16B\JJ	.
4ryy	4g#/	16r	.
.	.	16d\LL	.
.	.	16e\	.
.	.	16d\JJ	.
=8	=8	=8	=8
4ryy	(4b/	16r	.
.	.	16d\LL	.
.	.	16e\	.
.	.	16d\JJ	.
4ryy	4a/)	16r	.
.	.	16c#\LL	.
.	.	16e\	.
.	.	16c#\JJ	.
=:|!|:	=:|!|:	=:|!|:	=:|!|:
*	*v	*v	*
*>B	*>B	*>B
*	*^	*
4ryy	4aa/	16r	.
.	.	16a\LL	.
.	.	16ff#\	.
.	.	16a\JJ	.
4ryy	4cccn/	16r	.
.	.	16ee\LL	.
.	.	16aa\	.
.	.	16ee\JJ	.
=9	=9	=9	=9
4ryy	4bb/	16r	.
.	.	16dd#\LL	.
.	.	16aa\	.
.	.	16dd#\JJ	.
4ryy	4eee/	16r	.
.	.	16ddn\LL	.
.	.	16gg#\	.
.	.	16dd\JJ	.
4ryy	4aa/	16r	.
.	.	16cc#\LL	.
.	.	16ggn\	.
.	.	16cc#\JJ	.
4ryy	4ddd/	16r	.
.	.	16ccn\LL	.
.	.	16ff#\	.
.	.	16cc\JJ	.
*	*v	*v	*
=10	=10	=10
4GG/ 4G/	16r	.
.	16b\LL	.
.	16bb\	.
.	16b\JJ	.
4C#X\ 4c#X\	16r	.
.	16ee\LL	.
.	16gg\	.
.	16ee\JJ	.
4FF#/ 4F#/	16r	.
.	16a\LL	.
.	16aa\	.
.	16a\JJ	.
4BB\ 4B\	16r	.
.	16dd\LL	.
.	16ff#\	.
.	16dd\JJ	.
=11	=11	=11
*	*^	*
4EE/ 4E/	4ryy	16r	.
.	.	16b\LL	.
.	.	16gg\	.
.	.	16b\JJ	.
4ryy	4ccc#X/	16r	.
.	.	16a\LL	.
.	.	16gg\	.
.	.	16a\JJ	.
4ryy	4ddd/	16r	.
.	.	16a\LL	.
.	.	16ff#\	.
.	.	16a\JJ	.
4ryy	4dd/	16r	.
.	.	16g#\LL	.
.	.	16b\	.
.	.	16g#\JJ	.
=12	=12	=12	=12
4ryy	(4ff#/	16r	.
.	.	16a\LL	.
.	.	16dd\	.
.	.	16a\JJ	.
4ryy	4ee/)	16r	.
.	.	16a\LL	.
.	.	16cc#\	.
.	.	16a\JJ	.
2r	4ryy	4ee\ 4eee\	.
.	4ryy	4cc#\ 4ccc#\	.
*	*v	*v	*
=13	=13	=13
2r	4a\ 4aa\	.
.	4r	.
4AA/ 4A/	2r	.
4FF#/ 4F#/	.	.
=14	=14	=14
*	*^	*
4DD/ 4D/	4ryy	16r	.
.	.	16d\LL	.
.	.	16f#\	.
.	.	16d\JJ	.
4ryy	4aa/	16r	.
.	.	16d\LL	.
.	.	16f#\	.
.	.	16d\JJ	.
4ryy	4bb/	16r	.
.	.	16d\LL	.
.	.	16f#\	.
.	.	16d\JJ	.
4ryy	4ff#/	16r	.
.	.	16d#\LL	.
.	.	16b\	.
.	.	16d#\JJ	.
=15	=15	=15	=15
4ryy	4gg/	16r	.
.	.	16e\LL	.
.	.	16b\	.
.	.	16e\JJ	.
4EE/ 4E/	4ryy	16r	.
.	.	16g#\LL	.
.	.	16b\	.
.	.	16g#\JJ	.
4CC#/ 4C#/	4ryy	16r	.
.	.	16gn\LL	.
.	.	16ee\	.
.	.	16g\JJ	.
4AAA/ 4AA/	4ryy	16r	.
.	.	16g\LL	.
.	.	16cc#\	.
.	.	16g\JJ	.
=16	=16	=16	=16
4DD/ 4D/	4ryy	16r	.
.	.	16f#\LL	.
.	.	16dd\	.
.	.	16f#\JJ	.
4ryy	4bb/	16r	.
.	.	16g\LL	.
.	.	16dd\	.
.	.	16g\JJ	.
4AA\ 4A\	4ryy	16r	.
.	.	16f#\LL	.
.	.	16dd\	.
.	.	16f#\JJ	.
4ryy	4cc#/	16r	.
.	.	16e\LL	.
.	.	16a\	.
.	.	16e\JJ	.
=17	=17	=17	=17
4ryy	(4ee/	16r	.
.	.	16g\LL	.
.	.	16a\	.
.	.	16g\JJ	.
4ryy	4dd/)	16r	.
.	.	16f#\LL	.
.	.	16a\	.
.	.	16f#\JJ	.
==:|!	==:|!	==:|!	==:|!
*	*v	*v	*
=	=	=
*-	*-	*-
!!!SMS: Alte Mozart-Ausgabe, Band 20, Breitkopf &amp; H&auml;rtel 1877-1883.
!!!ONB: Stich und Druck von Breitkopf &amp; H&auml;rtel in Leipzig
!!!ONB: Ausgegeben 1878
!!!ENC: Craig Stuart Sapp
!!!END: 2009/09/22/
!!!title: @{OTL}, K 284 (205b), @{OMV}
!!!hum2abc: --no-tempo -s 0.70  --spacing 3.0
